!!!OTL: 753. Einladung zum Heilande.
!!!COM: Volksmelodie
!!!ARE: Europa, Mitteleuropa, Deutschland
!!!SCT: B0753
!!!TXL: @@DE
!!!YEM: Copyright 1995, estate of Helmut Schaffrath.
**kern	**text
*ICvox	*
*Ivox	*
*clefG2	*
*M4/4	*
*met(c)	*
*k[b-e-a-]	*
*E-:	*
=1	=1
!LO:TX:a:t=Freundlich.	!
{4g	Habt
4a-	ihr
4b-	es
4ee-	noch
=2	=2
4dd	nie
4cc	er-
4b-	-fah-
4g	-ren,
=3	=3
4ee-	nie
4cc	er-
4b-	-fah-
4g}	-ren,
=4	=4
{4f	wie
4a-	er
4g	iſt
4cc	ſo
=5	=5
2b-	reich
2a	und
=6	=6
2.b-	gut,
4r}	.
=7	=7
{4dd	wie
4ee-	er
4ff	ſeit
4dd	viel
=8	=8
4ee-	tau-
4b-	-ſend
4a-	Jah-
4f}	-ren
=9	=9
{4g	al-
4a-	-len
4b-	We-
4ee-	-ſen
=10	=10
2ee-	Lie-
2dd	-bes
=11	=11
2.ee-	thut.
4r}	.
==	==
!!!AGN: religioes
!!!GTL: Religioese Lieder
!!!ONB: ESAC (Essen Associative Code) Database: BOEHME
!!!AMT: simple quadruple
!!!AIN: vox
!!!EED: Helmut Schaffrath
!!!EEV: 1.0
!!Geistl. Volksmelodie.
!!@@COMMENT:"Max v. Schenkendorf. Text in seinen Christlichen Gedichten 1814."
!!@@END:
!!!Text: M. von Schenkendorf
!!!URL-scan: https://archive.org/details/BoehmeVtLieder1895/page/n605/mode/2up
!!!ENC: Anna Maria Matuszewska
!!!EEV: 2024/19/07
*-	*-
